X: 13065
T: Finnish
R: waltz
M: 3/4
K: Dmajor
|EF DC CD|EF E3E/F/|GA FE DC|CD D2 CD|
EF DC CD|EF E3E/F/|GA FE DC|CD D2 E/F/G:|
|:FG A2 A2|BA AG GE|FG A2 A2|BA AG GE|
(3FED C2 D2|EF E3E/F/|GA FE DC|1 CD D2 E/F/G:|2 CD D2 CD||

